!!!CDT:
!!!PTL: Il secondo libro de madrigali a cinque voci
!!!PPP: Venice
!!!PPR: Vincenzi & Amadino
!!!PDT: 1584
!!!PUB-format:
!!!RISM: M 1502
!!!rime: 33
!!!AGN: Madrigal
!!!SCT: Trm0033a
!!!SCA: Trm0033a
!!!original-voices: 5
!!!extant-voices: 4
!!!complete: N
!!!final: (C)F
!!!COM: Mazza, Francesco
!!!OTL: Io veggio in cielo scintillar le stelle
**kern	**text	**kern	**text	**kern	**text	**kern	**text
*part4	*part4	*part3	*part3	*part2	*part2	*part1	*part1
*staff4	*staff4	*staff3	*staff3	*staff2	*staff2	*staff1	*staff1
*I"Basso	*	*I"Quinto	*	*I"Tenore	*	*I"Canto	*
*I'B	*	*I'V	*	*I'T	*	*I'C	*
*oclefF4	*	*oclefC4	*	*oclefC4	*	*oclefC1	*
*clefF4	*	*clefGv2	*	*clefGv2	*	*clefG2	*
*k[b-]	*	*k[b-]	*	*k[b-]	*	*k[b-]	*
*omet(C)	*	*omet(C)	*	*omet(C)	*	*omet(C)	*
*M4/2	*	*M4/2	*	*M4/2	*	*M4/2	*
=1	=1	=1	=1	=1	=1	=1	=1
!!LO:TX:a:t=Prima parte.
0r	.	0r	.	0r	.	2f	Io
.	.	.	.	.	.	4f	veg-
.	.	.	.	.	.	4f	-gio in
.	.	.	.	.	.	4.cc	cie-
.	.	.	.	.	.	8b-y	-lo
.	.	.	.	.	.	4a	scin-
.	.	.	.	.	.	4g	-til-
=2	=2	=2	=2	=2	=2	=2	=2
0r	.	4r	.	1r	.	2a	-lar
.	.	4F	Io	.	.	.	.
.	.	4F	veg-	.	.	2a	le
.	.	4F	-gio in	.	.	.	.
.	.	4.c	cie-	4r	.	2g	stel-
.	.	.	.	4C	Io	.	.
.	.	8c	-lo	.	.	.	.
.	.	4c	scin-	4C	veg-	2g	-le,
.	.	4c	-til-	4C	-gio in	.	.
=3	=3	=3	=3	=3	=3	=3	=3
4r	.	4A	-lar	4.F	cie-	4r	.
4FF	Io	4A	le	.	.	4f	Io
.	.	.	.	8G	-lo	.	.
4FF	veg-	2F	stel-	4.A	scin-	4f	veg-
4FF	-gio in	.	.	.	.	4cc	-gio in
.	.	.	.	8B-y	-til-	.	.
4.F	cie-	2F	-le,	2.c	-lar	4.a	cie-
8F	-lo	.	.	.	.	8a	-lo
4F	scin-	2r	.	.	.	4a	scin-
4G	-til-	.	.	4B-y	.	4b-y	-til-
=4	=4	=4	=4	=4	=4	=4	=4
4A	-lar	4.f	scin-	4A	.	4cc	-lar
4F	le	.	.	4A	le	4cc	le
.	.	8f	-til-	.	.	.	.
2B-y	stel-	4f	-lar	2d	stel-	2b-y	stel-
.	.	4f	le	.	.	.	.
4F	-le	2f	stel-	4c	-le	4a	-le
4.F	Più	.	.	4.c	Più	4.a	Più
.	.	2c	-le	.	.	.	.
8F	che	.	.	8c	che	8a	che
4F	l'u-	.	.	4A	l'u-	4a	l'u-
=5	=5	=5	=5	=5	=5	=5	=5
2G	-sa-	1r	.	2BnX	-sa-	2g	-sa-
2C	-to	.	.	2c	-to	2g	-to
2BB-y	et	2B-y	et	2F	et	2d	et
4BB-y	lam-	4B-y	lam-	4F	lam-	4d	lam-
4BB-y	-peg-	4B-y	-peg-	4F	-peg-	4d	-peg-
=6	=6	=6	=6	=6	=6	=6	=6
4.D	-giar	4A	-giar	4F	-giar	4d	-giar
.	.	4F	tre-	4B-i	tre-	4f	tre-
8E	tre-	.	.	.	.	.	.
2F	-man-	2F	-man-	2A	-man-	2f	-man-
2BB-y	-ti,	2F	-ti,	2B-y	-ti,	2f	-ti,
2r	.	2r	.	4B-y	Co-	4b-y	Co-
.	.	.	.	8B-y	-me	8b-y	-me
.	.	.	.	8B-y	ne	8b-y	ne
=7	=7	=7	=7	=7	=7	=7	=7
0r	.	0r	.	4B-y	gl'oc-	4b-y	gl'oc-
.	.	.	.	4c	-chi	4g	-chi
.	.	.	.	4F	di	4a	di
.	.	.	.	4F	cor-	4cc	cor-
.	.	.	.	4G	-te-	4b-y	-te-
.	.	.	.	4F	-si a-	4a	-si a-
.	.	.	.	2c	-man-	2g	-man-
=8	=8	=8	=8	=8	=8	=8	=8
0r	.	1r	.	2c	-ti	4g	-ti
.	.	.	.	.	.	8g	Ri-
.	.	.	.	.	.	8a	-mi-
.	.	.	.	4.G	Ri-	4b-y	-ria-
.	.	.	.	.	.	8a	-mo
.	.	.	.	8A	-mi-	8g	ta-
.	.	4.d	Ri-	4B-y	-ria-	4f	-l'hor,
.	.	.	.	8A	-mo	8f	Ri-
.	.	8e	-mi-	8G	ta-	8g	-mi-
.	.	4f	-ria-	4F	-l'hor,	4a	-ria-
.	.	8e	-mo	8F	Ri-	8a	-mo
.	.	8d	ta-	8G	-mi-	8b-y	ta-
=9	=9	=9	=9	=9	=9	=9	=9
0r	.	2c	-l'hor	4A	-ria-	4cc	-l'hor
.	.	.	.	8A	-mo	4.cc	vi-
.	.	.	.	8B-y	ta-	.	.
.	.	2r	.	4c	-l'hor	.	.
.	.	.	.	.	.	8b-y	-ve
.	.	.	.	4.c	vi-	4a	fiam-
.	.	2r	.	.	.	4g	-mel-
.	.	.	.	8B-y	-ve	.	.
.	.	.	.	4A	fiam-	4f	-le,
.	.	4r	.	4G	-mel-	4r	.
.	.	4F	vi-	4F	-le,	[4cc	vi-
=10	=10	=10	=10	=10	=10	=10	=10
0r	.	4E	-ve	4r	.	8cc]	.
.	.	.	.	.	.	8b-y	-ve
.	.	4F	fiam-	4.c	vi-	4a	fiam-
.	.	4C	-mel-	.	.	4g	-mel-
.	.	.	.	8B-y	-ve	.	.
.	.	4F	-le,	4A	fiam-	4f	-le,
.	.	4r	.	4G	-mel-	2r	.
.	.	4.c	vi-	4F	-le,	.	.
.	.	.	.	4r	.	4r	.
.	.	8B-y	.	.	.	.	.
.	.	4A	.	4F	<vi-	4f	vi-
=11	=11	=11	=11	=11	=11	=11	=11
1r	.	4G	-ve	4E	-ve	4g	-ve
.	.	4c	fiam-	4F	fiam-	2f	-fiam-
.	.	2c	-mel-	2C	-mel-	.	.
.	.	.	.	.	.	4e	-mel-
2r	.	2c	-le.	1F	-le.>	2f	-le.
[2F	A-	[2c	A-	.	.	4r	.
.	.	.	.	.	.	[4a	A-
=12	=12	=12	=12	=12	=12	=12	=12
4F]	.	4c]	.	0r	.	4a]	.
4D	-man	4d	-man	.	.	4a	-man
2A	for-	2c	for-	.	.	2a	for-
4F	-si	4A	-si	.	.	4a	-si
4F	là	4c	là	.	.	4a	là
2B-y	su-	2d	su-	.	.	4f	su-
.	.	.	.	.	.	4g	.
=13	=13	=13	=13	=13	=13	=13	=13
2A	-so,	4c#X	-so,	4r	.	2a	-so,
.	.	4c#i	o	4A	o	.	.
4r	.	4d	pur	4G	pur	2r	.
4A	o	4d	so-	4F#X	so-	.	.
4G	pur	4B-y	-n'el-	4G	-n'el-	4r	.
4F#X	so-	4A	-le,	4D	-le,	4a	o
4G	-n'el-	2r	.	4r	.	4g	pur
4D	-le,	.	.	4d	o	4f#X	so-
=14	=14	=14	=14	=14	=14	=14	=14
2r	.	4r	.	4B-y	pur	4g	n'el-
.	.	4A	o	4A	so-	4d	-le,
4r	.	4G	pur	4B-y	-n'el-	2r	.
4A	o	4F#X	so-	4A	-le?	.	.
4G	pur	4G	-n'el-	1r	.	4r	.
4F#X	so-	4D	-le?	.	.	4a	o
2G	n'el-	2r	.	.	.	4g	-pur
.	.	.	.	.	.	4fnXi	so-
=15	=15	=15	=15	=15	=15	=15	=15
2A	-le?	2r	.	2r	.	2e	-n'el-
2FnXi	Pie-	2c	Pie-	4r	.	4f	le?
.	.	.	.	4F	Pie-	4f	Pie-
2.BB-y	-to-	2.B-y	-to-	2.F	-to-	2.f	-to-
4BB-y	-se a i	4B-y	-se a i	4F	-se a i	4f	-se a i
=16	=16	=16	=16	=16	=16	=16	=16
2BB-y	no-	1.B-y	no-	2F	no-	1f	no-
2BB-y	-stri af-	.	.	2D	-stri af-	.	.
1C	-fan-	.	.	2G	-fan-	2e	-stri af-
.	.	2A	-stri af-	2F	.	[2f	-fan-
=17	=17	=17	=17	=17	=17	=17	=17
1C	-ni,	1G	-fan-	2G	.	2f]	.
.	.	.	.	2C	-ni,	1e	-ni,
2AA	a i	2A	-ni,	2c	a i	.	.
[2AA	dol-	2E	a i	[2A	dol-	2a	a i
=18	=18	=18	=18	=18	=18	=18	=18
2AA]	.	4E	dol-	2A]	.	2a	dol-
.	.	4E	-ci	.	.	.	.
2GG	-ci	2.G	pian-	2D	-ci	2b-y	-ci
1AA	pian-	.	.	1A	pian-	1a	pian-
.	.	4F	.	.	.	.	.
.	.	2F	.	.	.	.	.
=19	=19	=19	=19	=19	=19	=19	=19
1AA	-ti?	1E	-ti?	1A	-ti?	1a	-ti?
2r	.	1r	.	4r	.	1r	.
.	.	.	.	4e	Et	.	.
4r	.	.	.	4.c	scor-	.	.
4A	Et	.	.	.	.	.	.
.	.	.	.	8B-y	-go-	.	.
=20	=20	=20	=20	=20	=20	=20	=20
4.F	scor-	0r	.	4A	-no	4r	.
.	.	.	.	4A	l'in-	4a	Et
8E	-go-	.	.	.	.	.	.
4D	-no	.	.	4A	-si-	4.f	scor-
4D	l'in-	.	.	4A	-die	.	.
.	.	.	.	.	.	8e	-go-
4G	-si-	.	.	4r	.	4d	-no
4G	-die e i	.	.	4G	e i	4g	l'in-
4C	pas-	.	.	4G	pas-	4e	-si-
4C	-si er-	.	.	4G	-si er-	4e	-die e i
=21	=21	=21	=21	=21	=21	=21	=21
2F	-ran-	1r	.	2A	-ran-	4f	pas-
.	.	.	.	.	.	4f	-si er-
2C	-ti	.	.	2G	-ti	2e	-ran-
1r	.	2c	Là	1r	.	4e	ti
.	.	.	.	.	.	4g	Là
.	.	4BnX	do-	.	.	4g	do-
.	.	4c	-v'al-	.	.	4g	-v'al-
=22	=22	=22	=22	=22	=22	=22	=22
0r	.	8FL	-trui	0r	.	2a	-trui
.	.	8G	.	.	.	.	.
.	.	8A	.	.	.	.	.
.	.	8B-iJ	.	.	.	.	.
.	.	4c	.	.	.	2g	d'a-
.	.	4C	d'a-	.	.	.	.
.	.	8DL	-mor	.	.	2f	-mor
.	.	8E	.	.	.	.	.
.	.	8F	.	.	.	.	.
.	.	8GJ	.	.	.	.	.
.	.	4A	.	.	.	4r	.
.	.	4F	go-	.	.	4a	go-
=23	=23	=23	=23	=23	=23	=23	=23
1r	.	4c	-d'et	1r	.	4g	-d'et
.	.	4d	fa-	.	.	4f	fa-
.	.	2A	-vel-	.	.	2e	-vel-
4r	.	2D	-le,	4r	.	2d	-le,
4D	Là	.	.	4A	Là	.	.
2G	do-	4r	.	2BnX	do-	4r	.
.	.	[4G	Là	.	.	4d	Là
=24	=24	=24	=24	=24	=24	=24	=24
2C	-v'al-	4G]	.	2c	-v'al-	4g	do-
.	.	2c	do-	.	.	4g	-v'al-
2.F	-trui	.	.	4.A	-trui	2.a	-trui
.	.	4A	-v'al-	.	.	.	.
.	.	.	.	8B-i	.	.	.
.	.	4A	-trui	4c	.	.	.
4FF	d'a-	4A	d'a-	4c	d'a-	4f	d'a-
[2C	-mor	[2G	-mor	[2c	-mor	[2g	-mor
=25	=25	=25	=25	=25	=25	=25	=25
2C]	.	2G]	.	2c]	.	2g]	.
2C	go-	2G	go-	2C	go-	2g	go-
4BBnX	-d'et	4G	-d'et	4D	-d'et	4g	-d'et
4C	fa-	4E	fa-	4G	fa-	4g	fa-
2GG	-vel-	2D	-vel-	2G	-vel-	2g	-vel-
=26	=26	=26	=26	=26	=26	=26	=26
0Cl	-le?	0Cl	-le?	0Gl	-le?	0el	-le?
=27||	=27||	=27||	=27||	=27||	=27||	=27||	=27||
!!LO:TX:a:t=Seconda parte.
2C	Pie-	2G	Pie-	2C	Pie-	2g	Pie-
4C	-to-	4G	-to-	4E	-to-	4g	-to-
4FF	-se	4A	-se	4F	-se	4f	-se
1C	lu-	8GL	lu-	1G	lu-	8eL	lu-
.	.	8F	.	.	.	8d	.
.	.	8E	.	.	.	8e	.
.	.	8DJ	.	.	.	8fJ	.
.	.	2C	.	.	.	2e	.
=28	=28	=28	=28	=28	=28	=28	=28
2GG	-ci,	2D	-ci,	2G	-ci,	2d	-ci,
2r	.	4r	.	2r	.	4r	.
.	.	8G	se	.	.	8d	se
.	.	8c	Le-	.	.	8e	Le-
1r	.	2B-y	-an-	1r	.	2f	-an-
.	.	2c	-dro in	.	.	2e	-dro in
=29	=29	=29	=29	=29	=29	=29	=29
0r	.	4G	ma-	0r	.	4d	ma-
.	.	4G	-re	.	.	4d	-re
.	.	4r	.	.	.	4g	O
.	.	4G	O	.	.	8d	tra-
.	.	.	.	.	.	8e	-vi-
.	.	8D	tra-	.	.	2f	-a-
.	.	8E	-vi-	.	.	.	.
.	.	2F	-a-	.	.	.	.
.	.	.	.	.	.	2f	-to
.	.	4F	-to	.	.	.	.
=30	=30	=30	=30	=30	=30	=30	=30
0r	.	4.B-y	pe-	0r	.	4.f	pe-
.	.	8B-y	-re-	.	.	8f	-re-
.	.	4B-y	-grin	.	.	4f	-grin
.	.	4c	fus-	.	.	4e	fus-
.	.	2G	-s'i-	.	.	4d	-s'i-
.	.	.	.	.	.	4d	-o
.	.	2G	-o	.	.	4r	.
.	.	.	.	.	.	4d	Tra
=31	=31	=31	=31	=31	=31	=31	=31
0r	.	4r	.	0r	.	2.g	bo-
.	.	4G	Tra	.	.	.	.
.	.	2.c	bo-	.	.	.	.
.	.	.	.	.	.	4a	-schi at-
.	.	.	.	.	.	4g	-ten-
.	.	4d	-schi at-	.	.	4f	-de-
.	.	4c	-ten-	.	.	[2g	-rei
.	.	4c	-de-	.	.	.	.
=32	=32	=32	=32	=32	=32	=32	=32
0r	.	2c	-rei	0r	.	2g]	.
.	.	4F	da	.	.	2f	da
.	.	2A	voi	.	.	.	.
.	.	.	.	.	.	4e	voi
.	.	4c	soc-	.	.	4e	soc-
.	.	2G	-cor-	.	.	2d	-cor-
=33	=33	=33	=33	=33	=33	=33	=33
2r	.	1C	-so:	2r	.	1c	-so:
2C	Co-	.	.	2G	Co-	.	.
4.F	-sì	1r	.	4.A	-sì	4r	.
.	.	.	.	.	.	4c	Co-
8E	con	.	.	8G	con	.	.
4D	la	.	.	4F	la	4.f	-sì
4D	sua	.	.	4F	sua	.	.
.	.	.	.	.	.	8e	con
=34	=34	=34	=34	=34	=34	=34	=34
2G	lu-	0r	.	2G	lu-	4d	la
.	.	.	.	.	.	4d	sua
2C	-ce il	.	.	2G	-ce il	4e	lu-
.	.	.	.	.	.	4g	-ce il
4G	sol	.	.	4G	sol	2.g	sol
4E	più	.	.	4G	più	.	.
2A	chia-	.	.	2A	chia-	.	.
.	.	.	.	.	.	4f	più
=35	=35	=35	=35	=35	=35	=35	=35
2G	-re	0r	.	2BnX	-re	2g	chia-
2C	Vi	.	.	2c	Vi	4g	-re
.	.	.	.	.	.	4g	Vi
2F	fac-	.	.	2c	fac-	2a	fac-
2C	-cia,	.	.	2c	-cia,	2g	-cia,
=36	=36	=36	=36	=36	=36	=36	=36
0r	.	2.c	sia-	0r	.	1r	.
.	.	4B-y	-te	.	.	.	.
.	.	2A	scor-	.	.	4r	.
.	.	.	.	.	.	2cc	sia-
.	.	2G	-te al	.	.	.	.
.	.	.	.	.	.	4b-y	-te
=37	=37	=37	=37	=37	=37	=37	=37
4r	.	2F	de-	4r	.	2a	scor-
2F	sia-	.	.	2c	sia-	.	.
.	.	2C	-sir	.	.	2g	-te al
4E	-te	.	.	4c	-te	.	.
2.D	scor-	4.F	mi-	4d	scor-	2f	de-
.	.	.	.	4A	-te al	.	.
.	.	8E	.	.	.	.	.
.	.	4D	.	4.A	de-	2a	-sir
4C#X	-te al	4E	.	.	.	.	.
.	.	.	.	8G	.	.	.
=38	=38	=38	=38	=38	=38	=38	=38
4D	de-	4.F	.	4F	.	1a	mi-
4D	-sir	.	.	4D	-sir	.	.
.	.	8G	.	.	.	.	.
2AA	mi-	2A	.	2E	mi-	.	.
2D	-o	2A	-o	2D	-o	2f#X	-o
4CnXi	Et	4c	Et	4G	Et	4g	Et
4C	gui-	4c	gui-	4G	gui-	4g	gui-
=39	=39	=39	=39	=39	=39	=39	=39
4F	-da-	4c	-da-	4F	-da-	4a	-da-
8F	-te	8c	-te	8c	-te	8a	-te
8BB-y	de'	8d	de'	8B-y	de'	8b-y	de'
4F	pas-	4c	pas-	4A	pas-	4cc	pas-
4FF	-si il	4c	-si il	4F	-si il	4a	-si il
8BB-yL	dub-	4B-y	dub-	4.F	dub-	2b-y	dub-
8C	.	.	.	.	.	.	.
8D	.	4F	-bio	.	.	.	.
8EJ	.	.	.	8G	.	.	.
4F	.	4.F	cor-	2A	.	4a	-bio
4FF	-bio	.	.	.	.	[4cc	cor-
.	.	16EL	.	.	.	.	.
.	.	16DJ	.	.	.	.	.
=40	=40	=40	=40	=40	=40	=40	=40
4.AA	cor-	4E	.	4A	-bio	8cc]L	.
.	.	.	.	.	.	8b-yJ	.
.	.	2F	.	4.c	cor-	4a	.
8BB-y	.	.	.	.	.	.	.
2C	.	.	.	.	.	2g	.
.	.	.	.	8B-y	.	.	.
.	.	4E	.	4G	.	.	.
2FF	-so,	2F	-so,	2A	-so,	4f	-so,
.	.	.	.	.	.	4a	Co-
2r	.	2r	.	4r	.	4.cc	-sì
.	.	.	.	4A	Co-	.	.
.	.	.	.	.	.	8b-y	con
=41	=41	=41	=41	=41	=41	=41	=41
1r	.	2r	.	4.c	-sì	4a	la
.	.	.	.	.	.	4g	-sua
.	.	.	.	8B-y	con	.	.
.	.	4r	.	4.A	la	2a	lu-
.	.	4A	Co-	.	.	.	.
.	.	.	.	8G	sua	.	.
2r	.	4.c	-sì	2F	lu-	2a	-ce,
.	.	8B-y	con	.	.	.	.
4r	.	4A	la	2C	-ce	2r	.
4C	Co-	4G	sua	.	.	.	.
=42	=42	=42	=42	=42	=42	=42	=42
4.F	-sì	4.A	lu-	0r	.	4r	.
.	.	.	.	.	.	4c	<Co-
8E	con	8G	.	.	.	.	.
4D	la	1F	.	.	.	4.f	-sì
4C	sua	.	.	.	.	.	.
.	.	.	.	.	.	8e	con
2BB-y	lu-	.	.	.	.	4d	la
.	.	.	.	.	.	4f	sua
2F	-ce il	4F	-ce il	.	.	4f	lu-
.	.	[4c	sol	.	.	4f	-ce> il
=43	=43	=43	=43	=43	=43	=43	=43
4E	sol	4c]	.	0r	.	4g	sol
4F	più	4A	più	.	.	4f	più
2D	chia-	2F	chia-	.	.	2f	chia-
4C	-re	4G	-re	.	.	4e	-re
4C	Vi	4c	Vi	.	.	4g	Vi
2G	fac-	2BnX	fac-	.	.	2g	fac-
=44	=44	=44	=44	=44	=44	=44	=44
2C	-cia,	2c	-cia,	4r	.	4g	-cia,
.	.	.	.	4.c	sia-	4.g	sia-
2r	.	2r	.	.	.	.	.
.	.	.	.	8BnX	-te	8g	-te
.	.	.	.	4c	scor-	4g	scor-
1r	.	1r	.	4F	-te al	4a	-te al
.	.	.	.	2B-i	de-	2f	de-
.	.	.	.	4B-y	-sir	4d	-sir
=45	=45	=45	=45	=45	=45	=45	=45
2r	.	2r	.	2A	mi-	2e	mi-
4r	.	4r	.	2D	-o	2d	-o
2D	Et	2d	Et	.	.	.	.
.	.	.	.	4r	.	1r	.
4D	gui-	4d	gui-	2A	Et	.	.
2F	-da-	[2c	-da-	.	.	.	.
.	.	.	.	4A	gui-	.	.
=46	=46	=46	=46	=46	=46	=46	=46
4E	-te	2c]	.	4G	-da-	4r	.
4F	de'	.	.	2A	-te	2f	Et
4.D	pas-	4d	-te	.	.	.	.
.	.	4A	de'	4d	de'	4f	gui-
8E	.	.	.	.	.	.	.
2F	.	2A	pas-	2c	pas-	2f	-da-
2C	-si	2G	-si il	2c	-si,	4g	-te
.	.	.	.	.	.	4g	de'
=47	=47	=47	=47	=47	=47	=47	=47
4r	.	4F	dub-	2r	.	2a	pas-
4F	il	4c	-bio	.	.	.	.
2G	dub-	2BnX	cor-	4r	.	2g	-si
.	.	.	.	2G	<Et	.	.
2C	-bio	2c	-so,	.	.	4r	.
.	.	.	.	4c	gui-	4g	il
[2F	cor-	4r	.	2A	-da-	2a	dub-
.	.	4c	de'	.	.	.	.
=48	=48	=48	=48	=48	=48	=48	=48
4F]	.	4.A	pas-	2F	-te	2a	-bio
4E	.	.	.	.	.	.	.
.	.	8G	.	.	.	.	.
4D	.	1F	.	2A	de'	2.dd	cor-
4C	.	.	.	.	.	.	.
4BB-y	.	.	.	2.B-y	pas-	.	.
4AA	.	.	.	.	.	4cc	.
2GG	.	2G	-si il	.	.	4b-y	.
.	.	.	.	4B-y	-si> il	4a	.
=49	=49	=49	=49	=49	=49	=49	=49
0C	.	2E	dub-	2c	dub-	2g	.
.	.	2F	-bio	2A	-bio	1f	.
.	.	4G	cor-	1G	cor-	.	.
.	.	4C	.	.	.	.	.
.	.	2c	.	.	.	2e	.
=50	=50	=50	=50	=50	=50	=50	=50
0FFl	-so.	0cl	-so.	0Fl	-so.	0fl	-so.
==	==	==	==	==	==	==	==
*-	*-	*-	*-	*-	*-	*-	*-
!!!system-decoration: [*]
!!!RDF**kern: i = editorial accidental
!!!RDF**kern: l = terminal long
!!!ENC: Emiliano Ricciardi
!!!END: 2018
!!!EED: Ricciardi, Emiliano
!!!EEV: 2018/09/18
!!!YEC: Copyright 2018 Emiliano Ricciardi, All Rights Reserved
!!!ONB: Translated from MusicXML on 2018/09/18 and edited by Craig Stuart Sapp
!!@@BEGIN:	VERSEDATA
!!@SOLERTI:	33
!!@CATALOGNUM:	Trm0033
!!@LAST_MODIFIED: 2020/07/12
!!@TITLE:		Io veggio in cielo scintillar le stelle
!!@GENRE:		sonetto
!!@MANUSRC:	Brn, C, Ts<sub>2</sub>, V<sub>8</sub>
!!@PRINTSRC:	11, 12, 13, 26, 31, 35, 69, 85, 87, 141, 166, 169
!!@@BEGIN:	VERSES
!!@ABOUTIT:	Camminando di notte prega le stelle che guidino il suo corso.
!!@ABOUTEN:	Wandering at night he begs the stars to guide his course.
!!@EDITOR:	Solerti, Angelo
!!@EDITION_TITLE: Le Rime di Torquato Tasso
!!@EDITION_LOC:	Bologna
!!@EDITION_PUB:	Romagnoli-Dall’Acqua
!!@EDITION_DATE:  1898-1902
!!@EDITION_VOL:	2
!!@EDITION_PAGE:  49-50
!!@TRANSLATOR:	Emiliano Ricciardi and Amyrose McCue Gill
!!@VERSE:
!!	Io veggio in cielo scintillar le stelle
!!	Oltre l'usato e lampeggiar tremanti,
!!	Come ne gli occhi de' cortesi amanti
!!	Noi rimiriam talor vive facelle.
!!@VERSE:
!!	Aman forse là suso, o pur son elle
!!	Pietose a' nostri affanni, a' nostri pianti?
!!	Mentre scorgon le insidie e i passi erranti
!!	Là dove altri d'Amor goda e favelle?
!!@VERSE:
!!	Cortesi luci, se Leandro in mare
!!	O travïato peregrin foss'io
!!	Non mi sareste di soccorso avare:
!!@VERSE:
!!	Così vi faccia il Sol più belle e chiare,
!!	Siate nel dubbio corso al desir mio
!!	Fide mie duci e scorte amate e care.
!!@TVERSE:
!!	I see, in the sky, the stars twinkling
!!	more than usual, and trembling ablaze,
!!	As in the eyes of gracious lovers
!!	We see at times reflected lively lights.
!!@TVERSE:
!!	Perhaps they are in love up there, or are they even
!!	Sympathetic to our troubles, to our cries?
!!	While they espy the dangers and the errant steps,
!!	There, where others take pleasure in and tell tales of Love?
!!@TVERSE:
!!	Gracious lights, if Leander in the sea
!!	Or pilgrim adrift were I,
!!	You would not be so stingy with your aid:
!!@TVERSE:
!!	Thus may the Sun make you more beautiful and bright;
!!	May you be, upon the uncertain course towards my desire,
!!	My faithful guides and beloved and dear guards.
!!@@END:		VERSES
!!
!!@OTHER_CRIT_ED:   Torquato Tasso, <i>Rime d’amore (secondo il codice
!!		Chigiano L VIII 302)</i>, eds. Franco Gavazzeni and
!!		Vercingetorige Martignone, vol. 4 of <i>Edizione
!!		Nazionale delle opere di Torquato Tasso</i>
!!		(Alessandria: Edizioni Dell’Orso, 2004), 25.
!!@ATTRIBUTION_ABOUT:	Secure
!!		<br>
!!		Among other authoritative sources (see Literary
!!		Sources), this poem appears in the autograph Chigiano
!!		L.VIII.302 (Biblioteca Vaticana, Rome), compiled
!!		around 1584&ndash;85.
!!@DATING:
!!@DEDICATEE:	Bendidio, Lucrezia
!!@COMMENTARY:
!!@@END:		VERSEDATA
!!@@BEGIN:	SETTING
!!@CATALOGNUM:	Trm0033a
!!@RIMETITLE:	Io veggio in cielo scintillar le stelle
!!@SOLERTI:	33
!!@COMPOSER:	Mazza, Francesco
!!@PRINCEPSTITLE:	Il secondo libro de madrigali a cinque voci
!!@PRINCEPSLOC:	Venetia
!!@NORMLOC:	Venice
!!@NORMPUB:	Vincenzi & Amadino
!!@NORMPUBSHORT:	Vincenzi & Amadino
!!@PRINCEPSPUB:	Vincenci e Amadino
!!@PRINCEPSYEAR:	1584
!!@PRINCEPSRISM:	M 1502
!!@REPRINTS:	
!!@OVOICES:	5
!!@EXTANTVOICES:	4
!!@PARTBOOKS:	
!!@EXTPARTBOOKS:	
!!@OCLEFS:	C1,C4,C4,F4
!!@OMENSURATION:	C
!!@OKEYSIG:	b-
!!@FINAL:	(C)F
!!@TIMPEDITOR:	Ricciardi, Emiliano
!!@NOTE:		
!!@@END:		SETTING
